Newaita-dark/apps/scalable/kronometer.svg

<?xml version="1.0" encoding="UTF-8"?>
<svg xmlns="http://www.w3.org/2000/svg" xmlns:xlink="http://www.w3.org/1999/xlink" width="512pt" height="512pt" viewBox="0 0 512 512" version="1.1">
<defs>
<radialGradient id="radial0" gradientUnits="userSpaceOnUse" cx="450.908936" cy="189.579361" fx="450.908936" fy="189.579361" r="21.166656" gradientTransform="matrix(0.00000278673,-1.250119,-2.250215,-0.00000162462,712.37043,1017.52527)">
<stop offset="0" style="stop-color:rgb(0%,0%,0%);stop-opacity:0.313725;"/>
<stop offset="0.222222" style="stop-color:rgb(0%,0%,0%);stop-opacity:0.27451;"/>
<stop offset="1" style="stop-color:rgb(0%,0%,0%);stop-opacity:0;"/>
</radialGradient>
<radialGradient id="radial1" gradientUnits="userSpaceOnUse" cx="450.908936" cy="189.579361" fx="450.908936" fy="189.579361" r="21.166656" gradientTransform="matrix(-0.00000278673,1.250119,2.250215,0.00000162462,-204.321898,-120.439713)">
<stop offset="0" style="stop-color:rgb(0%,0%,0%);stop-opacity:0.313725;"/>
<stop offset="0.222222" style="stop-color:rgb(0%,0%,0%);stop-opacity:0.27451;"/>
<stop offset="1" style="stop-color:rgb(0%,0%,0%);stop-opacity:0;"/>
</radialGradient>
<radialGradient id="radial2" gradientUnits="userSpaceOnUse" cx="450.908936" cy="189.579361" fx="450.908936" fy="189.579361" r="21.166656" gradientTransform="matrix(-0.00000278673,-1.250119,2.250215,-0.00000162462,-204.321898,1017.52527)">
<stop offset="0" style="stop-color:rgb(0%,0%,0%);stop-opacity:0.313725;"/>
<stop offset="0.222222" style="stop-color:rgb(0%,0%,0%);stop-opacity:0.27451;"/>
<stop offset="1" style="stop-color:rgb(0%,0%,0%);stop-opacity:0;"/>
</radialGradient>
<radialGradient id="radial3" gradientUnits="userSpaceOnUse" cx="450.908936" cy="189.579361" fx="450.908936" fy="189.579361" r="21.166656" gradientTransform="matrix(0.00000278673,1.250119,-2.250215,0.00000162462,712.3704,-120.43972)">
<stop offset="0" style="stop-color:rgb(0%,0%,0%);stop-opacity:0.313725;"/>
<stop offset="0.222222" style="stop-color:rgb(0%,0%,0%);stop-opacity:0.27451;"/>
<stop offset="1" style="stop-color:rgb(0%,0%,0%);stop-opacity:0;"/>
</radialGradient>
<linearGradient id="linear0" gradientUnits="userSpaceOnUse" x1="255.323059" y1="233.5" x2="255.323044" y2="254.666656" gradientTransform="matrix(0.213761,0,0,1.000095,199.446179,215.020539)">
<stop offset="0" style="stop-color:rgb(0%,0%,0%);stop-opacity:0.27451;"/>
<stop offset="1" style="stop-color:rgb(0%,0%,0%);stop-opacity:0;"/>
</linearGradient>
<linearGradient id="linear1" gradientUnits="userSpaceOnUse" x1="42.333332" y1="-126.333344" x2="83.62867" y2="-185.959564" gradientTransform="matrix(1,0,0,1,110.689888,103.389954)">
<stop offset="0" style="stop-color:rgb(61.960784%,61.960784%,61.960784%);stop-opacity:1;"/>
<stop offset="1" style="stop-color:rgb(74.117647%,74.117647%,74.117647%);stop-opacity:1;"/>
</linearGradient>
<linearGradient id="linear2" gradientUnits="userSpaceOnUse" x1="42.333332" y1="-126.333344" x2="83.62867" y2="-185.959564" gradientTransform="matrix(1,0,0,1,-329.909058,-150.989975)">
<stop offset="0" style="stop-color:rgb(61.960784%,61.960784%,61.960784%);stop-opacity:1;"/>
<stop offset="1" style="stop-color:rgb(74.117647%,74.117647%,74.117647%);stop-opacity:1;"/>
</linearGradient>
<linearGradient id="linear3" gradientUnits="userSpaceOnUse" x1="254" y1="233.5" x2="254" y2="-168.666656" >
<stop offset="0" style="stop-color:rgb(61.960784%,61.960784%,61.960784%);stop-opacity:1;"/>
<stop offset="1" style="stop-color:rgb(74.117647%,74.117647%,74.117647%);stop-opacity:1;"/>
</linearGradient>
<linearGradient id="linear4" gradientUnits="userSpaceOnUse" x1="241.916656" y1="111.791656" x2="266.083313" y2="111.791656" gradientTransform="matrix(1,0,0,1,-335.803772,193.842026)">
<stop offset="0" style="stop-color:rgb(95.686275%,26.27451%,21.176471%);stop-opacity:1;"/>
<stop offset="1" style="stop-color:rgb(93.72549%,32.54902%,31.372549%);stop-opacity:1;"/>
</linearGradient>
<linearGradient id="linear5" gradientUnits="userSpaceOnUse" x1="243.416672" y1="74.75" x2="243.416672" y2="-9.916667" >
<stop offset="0" style="stop-color:rgb(61.960784%,61.960784%,61.960784%);stop-opacity:1;"/>
<stop offset="1" style="stop-color:rgb(74.117647%,74.117647%,74.117647%);stop-opacity:1;"/>
</linearGradient>
</defs>
<g id="surface1">
<path style=" stroke:none;fill-rule:nonzero;fill:url(#radial0);" d="M 291.070312 448.542969 L 333.40625 448.542969 L 333.40625 427.375 L 291.070312 427.375 Z M 291.070312 448.542969 "/>
<path style=" stroke:none;fill-rule:nonzero;fill:url(#radial1);" d="M 216.980469 448.542969 L 174.640625 448.542969 L 174.640625 469.710938 L 216.980469 469.710938 Z M 216.980469 448.542969 "/>
<path style=" stroke:none;fill-rule:nonzero;fill:url(#radial2);" d="M 216.980469 448.542969 L 174.640625 448.542969 L 174.640625 427.375 L 216.980469 427.375 Z M 216.980469 448.542969 "/>
<path style=" stroke:none;fill-rule:nonzero;fill:url(#radial3);" d="M 291.070312 448.542969 L 333.40625 448.542969 L 333.40625 469.710938 L 291.070312 469.710938 Z M 291.070312 448.542969 "/>
<path style=" stroke:none;fill-rule:nonzero;fill:url(#linear0);" d="M 216.980469 443.25 L 291.070312 443.25 L 291.070312 469.710938 L 216.980469 469.710938 Z M 216.980469 443.25 "/>
<path style="fill-rule:nonzero;fill:url(#linear1);stroke-width:3;stroke-linecap:square;stroke-linejoin:bevel;stroke:rgb(12.941177%,12.941177%,12.941177%);stroke-opacity:1;stroke-miterlimit:4;" d="M 184.774738 -75.859427 C 208.15184 -75.861435 227.107339 -61.643127 227.104843 -44.109228 C 227.10573 -26.573376 208.15153 -12.359149 184.771045 -12.359094 C 161.392513 -12.362422 142.438444 -26.575394 142.44094 -44.109293 C 142.440053 -61.645145 161.394253 -75.859373 184.774738 -75.859427 Z M 184.774738 -75.859427 " transform="matrix(0.866108,-0.500048,0.500048,0.866108,0,215.020531)"/>
<path style="fill-rule:nonzero;fill:url(#linear2);stroke-width:3;stroke-linecap:square;stroke-linejoin:bevel;stroke:rgb(12.941177%,12.941177%,12.941177%);stroke-opacity:1;stroke-miterlimit:4;" d="M -255.824356 -330.239439 C -232.44387 -330.239493 -213.491754 -316.023138 -213.49425 -298.489239 C -213.493364 -280.953387 -232.447564 -266.739159 -255.828049 -266.739104 C -279.206581 -266.742432 -298.16065 -280.955405 -298.158154 -298.489304 C -298.159041 -316.025157 -279.204841 -330.239384 -255.824356 -330.239439 Z M -255.824356 -330.239439 " transform="matrix(-0.866108,-0.500048,-0.500048,0.866108,0,215.020531)"/>
<path style="fill-rule:nonzero;fill:url(#linear3);stroke-width:3;stroke-linecap:round;stroke-linejoin:miter;stroke:rgb(20%,20%,20%);stroke-opacity:1;stroke-miterlimit:4;" d="M 253.999182 -168.668487 C 365.054983 -168.668487 455.081542 -78.638022 455.081542 32.417779 C 455.081542 143.47358 365.054983 233.500139 253.999182 233.500139 C 142.943381 233.500139 52.916822 143.47358 52.916822 32.417779 C 52.916822 -78.638022 142.943381 -168.668487 253.999182 -168.668487 Z M 253.999182 -168.668487 " transform="matrix(1.000095,0,0,1.000095,0,215.020531)"/>
<path style=" stroke:none;fill-rule:nonzero;fill:rgb(0%,0%,0%);fill-opacity:0.196078;" d="M 254.023438 448.542969 C 142.613281 448.542969 52.921875 358.851562 52.921875 247.441406 C 52.921875 246.78125 52.929688 246.125 52.933594 245.472656 C 53.984375 355.964844 143.269531 444.605469 254.023438 444.605469 C 364.777344 444.605469 454.0625 355.964844 455.113281 245.472656 C 455.121094 246.125 455.125 246.78125 455.125 247.441406 C 455.125 358.851562 365.433594 448.542969 254.023438 448.542969 Z M 254.023438 448.542969 "/>
<path style=" stroke:none;fill-rule:nonzero;fill:rgb(100%,100%,100%);fill-opacity:0.392157;" d="M 254.023438 46.335938 C 142.613281 46.335938 52.921875 136.027344 52.921875 247.441406 C 52.921875 248.097656 52.929688 248.753906 52.933594 249.410156 C 53.984375 138.914062 143.269531 50.277344 254.023438 50.277344 C 364.777344 50.277344 454.0625 138.914062 455.113281 249.410156 C 455.121094 248.753906 455.125 248.097656 455.125 247.441406 C 455.125 136.027344 365.433594 46.335938 254.023438 46.335938 Z M 254.023438 46.335938 "/>
<path style=" stroke:none;fill-rule:nonzero;fill:rgb(12.941177%,12.941177%,12.941177%);fill-opacity:1;" d="M 254.023438 44.839844 C 141.808594 44.839844 51.421875 135.222656 51.421875 247.441406 C 51.421875 359.65625 141.808594 450.042969 254.023438 450.042969 C 366.238281 450.042969 456.628906 359.65625 456.628906 247.441406 C 456.628906 135.222656 366.238281 44.839844 254.023438 44.839844 Z M 254.023438 47.839844 C 364.628906 47.839844 453.628906 136.832031 453.628906 247.441406 C 453.628906 358.046875 364.628906 447.042969 254.023438 447.042969 C 143.417969 447.042969 54.421875 358.046875 54.421875 247.441406 C 54.421875 136.832031 143.417969 47.839844 254.023438 47.839844 Z M 254.023438 47.839844 "/>
<path style="fill-rule:nonzero;fill:rgb(87.843137%,87.843137%,87.843137%);fill-opacity:1;stroke-width:2.526316;stroke-linecap:round;stroke-linejoin:miter;stroke:rgb(20%,20%,20%);stroke-opacity:1;stroke-miterlimit:4;" d="M 253.999182 -136.917613 C 347.521501 -136.917613 423.334574 -61.10454 423.334574 32.417779 C 423.334574 125.936192 347.521501 201.749265 253.999182 201.749265 C 160.480769 201.749265 84.667696 125.936192 84.667696 32.417779 C 84.667696 -61.10454 160.480769 -136.917613 253.999182 -136.917613 Z M 253.999182 -136.917613 " transform="matrix(1.000095,0,0,1.000095,0,215.020531)"/>
<path style="fill-rule:nonzero;fill:url(#linear4);stroke-width:3;stroke-linecap:square;stroke-linejoin:bevel;stroke:rgb(20%,20%,20%);stroke-opacity:1;stroke-miterlimit:4;" d="M -87.093302 226.25774 C -84.174211 226.258634 -81.802368 228.627965 -81.805055 231.550526 L -81.802673 379.719055 C -81.803566 382.638146 -84.172898 385.009989 -87.095458 385.007302 C -90.019813 385.008085 -92.388185 382.640547 -92.385499 379.717986 L -92.387881 231.549457 C -92.385194 228.626896 -90.017656 226.258523 -87.093302 226.25774 Z M -87.093302 226.25774 " transform="matrix(-0.459265,0.888407,0.888407,0.459265,0,215.020531)"/>
<path style="fill-rule:nonzero;fill:url(#linear5);stroke-width:3;stroke-linecap:square;stroke-linejoin:bevel;stroke:rgb(20%,20%,20%);stroke-opacity:1;stroke-miterlimit:4;" d="M 253.999182 -9.918022 C 277.379762 -9.918022 296.334983 9.037199 296.334983 32.417779 C 296.334983 55.798359 277.379762 74.749674 253.999182 74.749674 C 230.618602 74.749674 211.667287 55.798359 211.667287 32.417779 C 211.667287 9.037199 230.618602 -9.918022 253.999182 -9.918022 Z M 253.999182 -9.918022 " transform="matrix(1.000095,0,0,1.000095,0,215.020531)"/>
</g>
</svg>

<svg xmlns="http://www.w3.org/2000/svg" width="512pt" height="512pt" viewBox="0 0 512 512"><defs><radialGradient id="a" gradientUnits="userSpaceOnUse" cx="450.909" cy="189.579" fx="450.909" fy="189.579" r="21.167" gradientTransform="matrix(0 -1.25012 -2.25021 0 712.37 1017.525)"><stop offset="0" stop-opacity=".314"/><stop offset=".222" stop-opacity=".275"/><stop offset="1" stop-opacity="0"/></radialGradient><radialGradient id="b" gradientUnits="userSpaceOnUse" cx="450.909" cy="189.579" fx="450.909" fy="189.579" r="21.167" gradientTransform="matrix(0 1.25012 2.25021 0 -204.322 -120.44)"><stop offset="0" stop-opacity=".314"/><stop offset=".222" stop-opacity=".275"/><stop offset="1" stop-opacity="0"/></radialGradient><radialGradient id="c" gradientUnits="userSpaceOnUse" cx="450.909" cy="189.579" fx="450.909" fy="189.579" r="21.167" gradientTransform="matrix(0 -1.25012 2.25021 0 -204.322 1017.525)"><stop offset="0" stop-opacity=".314"/><stop offset=".222" stop-opacity=".275"/><stop offset="1" stop-opacity="0"/></radialGradient><radialGradient id="d" gradientUnits="userSpaceOnUse" cx="450.909" cy="189.579" fx="450.909" fy="189.579" r="21.167" gradientTransform="matrix(0 1.25012 -2.25021 0 712.37 -120.44)"><stop offset="0" stop-opacity=".314"/><stop offset=".222" stop-opacity=".275"/><stop offset="1" stop-opacity="0"/></radialGradient><linearGradient id="e" gradientUnits="userSpaceOnUse" x1="255.323" y1="233.5" x2="255.323" y2="254.667" gradientTransform="matrix(.21376 0 0 1.0001 199.446 215.02)"><stop offset="0" stop-opacity=".275"/><stop offset="1" stop-opacity="0"/></linearGradient><linearGradient id="f" gradientUnits="userSpaceOnUse" x1="42.333" y1="-126.333" x2="83.629" y2="-185.96" gradientTransform="translate(110.69 103.39)"><stop offset="0" stop-color="#9e9e9e"/><stop offset="1" stop-color="#bdbdbd"/></linearGradient><linearGradient id="g" gradientUnits="userSpaceOnUse" x1="42.333" y1="-126.333" x2="83.629" y2="-185.96" gradientTransform="translate(-329.91 -150.99)"><stop offset="0" stop-color="#9e9e9e"/><stop offset="1" stop-color="#bdbdbd"/></linearGradient><linearGradient id="h" gradientUnits="userSpaceOnUse" x1="254" y1="233.5" x2="254" y2="-168.667"><stop offset="0" stop-color="#9e9e9e"/><stop offset="1" stop-color="#bdbdbd"/></linearGradient><linearGradient id="i" gradientUnits="userSpaceOnUse" x1="241.917" y1="111.792" x2="266.083" y2="111.792" gradientTransform="translate(-335.804 193.842)"><stop offset="0" stop-color="#f44336"/><stop offset="1" stop-color="#ef5350"/></linearGradient><linearGradient id="j" gradientUnits="userSpaceOnUse" x1="243.417" y1="74.75" x2="243.417" y2="-9.917"><stop offset="0" stop-color="#9e9e9e"/><stop offset="1" stop-color="#bdbdbd"/></linearGradient></defs><path d="M291.07 448.543h42.336v-21.168H291.07zm0 0" fill="url(#a)"/><path d="M216.98 448.543h-42.34v21.168h42.34zm0 0" fill="url(#b)"/><path d="M216.98 448.543h-42.34v-21.168h42.34zm0 0" fill="url(#c)"/><path d="M291.07 448.543h42.336v21.168H291.07zm0 0" fill="url(#d)"/><path d="M216.98 443.25h74.09v26.46h-74.09zm0 0" fill="url(#e)"/><path d="M184.775-75.86c23.377-.001 42.332 14.217 42.33 31.75 0 17.537-18.953 31.75-42.334 31.75-23.378-.002-42.333-14.215-42.33-31.75 0-17.535 18.953-31.75 42.334-31.75zm0 0" transform="matrix(.8661 -.50005 .50005 .8661 0 215.02)" fill="url(#f)" stroke-width="3" stroke-linecap="square" stroke-linejoin="bevel" stroke="#212121"/><path d="M-255.824-330.24c23.38 0 42.332 14.217 42.33 31.75 0 17.537-18.954 31.75-42.334 31.75-23.379-.002-42.333-14.215-42.33-31.75-.001-17.535 18.953-31.75 42.334-31.75zm0 0" transform="matrix(-.8661 -.50005 -.50005 .8661 0 215.02)" fill="url(#g)" stroke-width="3" stroke-linecap="square" stroke-linejoin="bevel" stroke="#212121"/><path d="M254-168.668c111.055 0 201.082 90.03 201.082 201.086 0 111.056-90.027 201.082-201.083 201.082S52.917 143.474 52.917 32.418s90.026-201.086 201.082-201.086zm0 0" transform="matrix(1.0001 0 0 1.0001 0 215.02)" fill="url(#h)" stroke-width="3" stroke-linecap="round" stroke="#333"/><path d="M254.023 448.543c-111.41 0-201.101-89.691-201.101-201.102 0-.66.008-1.316.012-1.968 1.05 110.492 90.336 199.132 201.09 199.132 110.753 0 200.038-88.64 201.09-199.132.007.652.011 1.308.011 1.968 0 111.41-89.691 201.102-201.102 201.102zm0 0" fill-opacity=".196"/><path d="M254.023 46.336c-111.41 0-201.101 89.691-201.101 201.105 0 .657.008 1.313.012 1.97 1.05-110.497 90.336-199.134 201.09-199.134 110.753 0 200.038 88.637 201.09 199.133.007-.656.011-1.312.011-1.969 0-111.414-89.691-201.105-201.102-201.105zm0 0" fill="#fff" fill-opacity=".392"/><path d="M254.023 44.84c-112.214 0-202.601 90.383-202.601 202.601 0 112.215 90.387 202.602 202.601 202.602 112.215 0 202.606-90.387 202.606-202.602 0-112.218-90.39-202.601-202.606-202.601zm0 3c110.606 0 199.606 88.992 199.606 199.601 0 110.606-89 199.602-199.606 199.602-110.605 0-199.601-88.996-199.601-199.602 0-110.609 88.996-199.601 199.601-199.601zm0 0" fill="#212121"/><path d="M254.023 78.09c93.532 0 169.352 75.82 169.352 169.351 0 93.528-75.82 169.348-169.352 169.348-93.527 0-169.347-75.82-169.347-169.348 0-93.53 75.82-169.351 169.347-169.351zm0 0" fill="#e0e0e0" stroke-width="2.5262273399999997" stroke-linecap="round" stroke="#333"/><path d="M-87.093 226.258a5.29 5.29 0 0 1 5.288 5.293l.002 148.168a5.29 5.29 0 0 1-5.292 5.288 5.285 5.285 0 0 1-5.29-5.289l-.003-148.169a5.295 5.295 0 0 1 5.295-5.291zm0 0" transform="matrix(-.45926 .8884 .8884 .45926 0 215.02)" fill="url(#i)" stroke-width="3" stroke-linecap="square" stroke-linejoin="bevel" stroke="#333"/><path d="M254-9.918c23.38 0 42.335 18.955 42.335 42.336 0 23.38-18.955 42.332-42.336 42.332-23.38 0-42.332-18.952-42.332-42.332S230.62-9.918 254-9.918zm0 0" transform="matrix(1.0001 0 0 1.0001 0 215.02)" fill="url(#j)" stroke-width="3" stroke-linecap="square" stroke-linejoin="bevel" stroke="#333"/></svg>
